public/icons/forms/eye-off.svg

<svg width="16" height="16" viewBox="0 0 16 16" fill="none" xmlns="http://www.w3.org/2000/svg">
<g id="eye-off" clip-path="url(#clip0_482_5)">
<path id="Vector" d="M12.8421 13.4554C12.7805 13.4555 12.7196 13.4434 12.6627 13.4198C12.6058 13.3962 12.5542 13.3616 12.5108 13.318L2.19825 3.00548C2.11406 2.91686 2.06781 2.79885 2.06937 2.67662C2.07094 2.55438 2.12019 2.4376 2.20663 2.35116C2.29307 2.26472 2.40985 2.21547 2.53208 2.21391C2.65432 2.21234 2.77232 2.25859 2.86095 2.34278L13.1734 12.6553C13.239 12.7208 13.2836 12.8043 13.3016 12.8952C13.3197 12.9861 13.3104 13.0804 13.275 13.166C13.2395 13.2516 13.1795 13.3248 13.1024 13.3763C13.0254 13.4278 12.9348 13.4553 12.8421 13.4554ZM7.45148 9.5838L5.93419 8.06651C5.9255 8.05789 5.91432 8.05221 5.90223 8.05027C5.89014 8.04832 5.87775 8.05022 5.86679 8.05568C5.85583 8.06114 5.84686 8.0699 5.84114 8.08073C5.83541 8.09155 5.83322 8.10389 5.83487 8.11603C5.89613 8.50967 6.08096 8.87364 6.36266 9.15533C6.64435 9.43703 7.00832 9.62186 7.40196 9.68312C7.4141 9.68477 7.42644 9.68258 7.43726 9.67685C7.44809 9.67113 7.45685 9.66216 7.46231 9.6512C7.46777 9.64024 7.46966 9.62785 7.46772 9.61576C7.46578 9.60367 7.4601 9.59249 7.45148 9.5838ZM7.92023 6.07696L9.43985 7.59601C9.44853 7.60475 9.45973 7.61054 9.47188 7.61255C9.48403 7.61456 9.49651 7.61269 9.50753 7.60721C9.51856 7.60173 9.52758 7.59291 9.53331 7.58201C9.53904 7.57111 9.5412 7.55869 9.53946 7.54649C9.47836 7.15232 9.2934 6.78782 9.01135 6.50577C8.72929 6.22371 8.36479 6.03875 7.97062 5.97765C7.95841 5.97576 7.94592 5.97779 7.93493 5.98342C7.92394 5.98906 7.91502 5.99803 7.90943 6.00904C7.90384 6.02006 7.90188 6.03256 7.90381 6.04475C7.90575 6.05695 7.9115 6.06822 7.92023 6.07696Z" fill="black"/>
<path id="Vector_2" d="M14.5706 8.33892C14.6676 8.18668 14.7189 8.00981 14.7184 7.82931C14.7178 7.6488 14.6656 7.47223 14.5677 7.32056C13.7925 6.12173 12.7867 5.10337 11.6594 4.37534C10.4105 3.56909 9.03351 3.14282 7.67648 3.14282C6.96108 3.1438 6.25054 3.26045 5.57237 3.48823C5.55339 3.49455 5.53634 3.50561 5.52285 3.52038C5.50936 3.53514 5.49987 3.55312 5.49529 3.57259C5.4907 3.59206 5.49118 3.61238 5.49668 3.63162C5.50217 3.65085 5.5125 3.66836 5.52667 3.68247L6.91065 5.06646C6.92503 5.08086 6.94291 5.09127 6.96254 5.09666C6.98216 5.10206 7.00285 5.10225 7.02257 5.09722C7.49169 4.9829 7.98233 4.99127 8.44728 5.12154C8.91222 5.25181 9.33579 5.49959 9.67721 5.84101C10.0186 6.18243 10.2664 6.60601 10.3967 7.07095C10.527 7.53589 10.5353 8.02654 10.421 8.49565C10.416 8.51533 10.4162 8.53596 10.4216 8.55553C10.427 8.5751 10.4374 8.59293 10.4518 8.60728L12.4425 10.5995C12.4632 10.6202 12.4909 10.6324 12.5202 10.6337C12.5495 10.635 12.5782 10.6253 12.6007 10.6065C13.367 9.95334 14.031 9.18899 14.5706 8.33892ZM7.68585 10.6428C7.26009 10.6428 6.83989 10.5462 6.45691 10.3602C6.07394 10.1742 5.73819 9.90365 5.47499 9.56899C5.21179 9.23433 5.02801 8.84429 4.93749 8.42826C4.84697 8.01224 4.85209 7.58109 4.95245 7.16733C4.95743 7.14766 4.95721 7.12703 4.95182 7.10746C4.94643 7.08789 4.93604 7.07006 4.92169 7.05571L2.96349 5.09663C2.94272 5.07584 2.91491 5.06361 2.88555 5.06237C2.8562 5.06112 2.82744 5.07094 2.80499 5.08989C2.09044 5.69956 1.42804 6.44136 0.822472 7.30825C0.716471 7.46039 0.658092 7.64061 0.654754 7.82601C0.651415 8.0114 0.703267 8.19361 0.803722 8.34946C1.57745 9.5603 2.57296 10.5801 3.68302 11.2982C4.9337 12.1077 6.27726 12.5178 7.67648 12.5178C8.39909 12.5159 9.11702 12.4017 9.8046 12.1794C9.82375 12.1733 9.84101 12.1624 9.85471 12.1477C9.86841 12.133 9.87809 12.115 9.88283 12.0954C9.88757 12.0759 9.8872 12.0555 9.88176 12.0361C9.87632 12.0168 9.86599 11.9991 9.85177 11.9849L8.46105 10.5945C8.4467 10.5801 8.42887 10.5697 8.4093 10.5644C8.38973 10.559 8.3691 10.5587 8.34942 10.5637C8.13216 10.6164 7.9094 10.6429 7.68585 10.6428Z" fill="black"/>
</g>
<defs>
<clipPath id="clip0_482_5">
<rect width="15" height="15" fill="white" transform="translate(0.185852 0.330322)"/>
</clipPath>
</defs>
</svg>

<svg xmlns="http://www.w3.org/2000/svg" fill="none" viewBox="0 0 16 16"><g fill="#000" clip-path="url(#a)"><path d="M12.84 13.46a.47.47 0 0 1-.33-.14L2.2 3a.47.47 0 0 1 .66-.67l10.31 10.32a.47.47 0 0 1-.33.8ZM7.45 9.58 5.93 8.07a.06.06 0 0 0-.1.05A1.88 1.88 0 0 0 7.4 9.68a.06.06 0 0 0 .05-.1Zm.47-3.5L9.44 7.6a.06.06 0 0 0 .1-.05 1.88 1.88 0 0 0-1.57-1.57.06.06 0 0 0-.05.1Z"/><path d="M14.57 8.34a.94.94 0 0 0 0-1.02 9.93 9.93 0 0 0-2.91-2.94 7.37 7.37 0 0 0-3.98-1.24 6.64 6.64 0 0 0-2.16.38.12.12 0 0 0 0 .16l1.4 1.39a.12.12 0 0 0 .1.03 2.81 2.81 0 0 1 3.4 3.4.12.12 0 0 0 .03.1l2 2a.12.12 0 0 0 .15 0c.77-.65 1.43-1.41 1.97-2.26Zm-6.88 2.3a2.81 2.81 0 0 1-2.74-3.47.12.12 0 0 0-.03-.11L2.96 5.1a.12.12 0 0 0-.16-.01C2.1 5.7 1.43 6.44.82 7.31A.94.94 0 0 0 .8 8.35a9.79 9.79 0 0 0 2.88 2.95 6.98 6.98 0 0 0 6.17.85.12.12 0 0 0 0-.17L8.46 10.6a.12.12 0 0 0-.11-.03c-.22.06-.44.08-.66.08Z"/></g><defs><clipPath><path fill="#fff" d="M0 0h15v15H0z" transform="translate(.19 .33)"/></clipPath></defs></svg>
